communes/423.svg

<?xml version="1.0" encoding="UTF-8" standalone="no"?>
<svg
   xmlns:dc="http://purl.org/dc/elements/1.1/"
   xmlns:cc="http://web.resource.org/cc/"
   xmlns:rdf="http://www.w3.org/1999/02/22-rdf-syntax-ns#"
   xmlns:svg="http://www.w3.org/2000/svg"
   xmlns="http://www.w3.org/2000/svg"
   xmlns:xlink="http://www.w3.org/1999/xlink"
   xmlns:sodipodi="http://sodipodi.sourceforge.net/DTD/sodipodi-0.dtd"
   xmlns:inkscape="http://www.inkscape.org/namespaces/inkscape"
   height="763"
   width="603"
   version="1.0"
   id="svg20"
   sodipodi:version="0.32"
   inkscape:version="0.44.1"
   sodipodi:docname="Willadingen-coat of arms.svg"
   sodipodi:docbase="F:\Mis Documentos\Mis imágenes\Encyclopédie\Escudos de Suiza">
  <metadata
     id="metadata31">
    <rdf:RDF>
      <cc:Work
         rdf:about="">
        <dc:format>image/svg+xml</dc:format>
        <dc:type
           rdf:resource="http://purl.org/dc/dcmitype/StillImage" />
        <dc:date>07-AUG-2006</dc:date>
        <dc:creator>
          <cc:Agent>
            <dc:title>Jérôme BLUM (wagner51)</dc:title>
          </cc:Agent>
        </dc:creator>
        <cc:license
           rdf:resource="http://creativecommons.org/licenses/GPL/2.0/" />
        <dc:coverage />
        <dc:description>Gabarit pour le Projet:Blasons de WIkipédia</dc:description>
        <dc:subject>
          <rdf:Bag>
            <rdf:li>blason suisse modèle gabarit projet blasons</rdf:li>
          </rdf:Bag>
        </dc:subject>
        <dc:language>fr</dc:language>
        <dc:title>Gabrit d'un blason suisse</dc:title>
      </cc:Work>
      <cc:License
         rdf:about="http://creativecommons.org/licenses/GPL/2.0/">
        <cc:permits
           rdf:resource="http://web.resource.org/cc/Reproduction" />
        <cc:permits
           rdf:resource="http://web.resource.org/cc/Distribution" />
        <cc:requires
           rdf:resource="http://web.resource.org/cc/Notice" />
        <cc:permits
           rdf:resource="http://web.resource.org/cc/DerivativeWorks" />
        <cc:requires
           rdf:resource="http://web.resource.org/cc/ShareAlike" />
        <cc:requires
           rdf:resource="http://web.resource.org/cc/SourceCode" />
      </cc:License>
    </rdf:RDF>
  </metadata>
  <defs
     id="defs29">
    <linearGradient
       id="linearGradient2893">
      <stop
         style="stop-color:#ffffff;stop-opacity:0.3137255;"
         offset="0"
         id="stop2895" />
      <stop
         id="stop2897"
         offset="0.19"
         style="stop-color:#ffffff;stop-opacity:0.25098041;" />
      <stop
         style="stop-color:#6b6b6b;stop-opacity:0.1254902;"
         offset="0.60000002"
         id="stop2901" />
      <stop
         style="stop-color:#000000;stop-opacity:0.1254902;"
         offset="1"
         id="stop2899" />
    </linearGradient>
    <linearGradient
       id="linearGradient2955">
      <stop
         style="stop-color:white;stop-opacity:0;"
         offset="0"
         id="stop2965" />
      <stop
         style="stop-color:black;stop-opacity:0.64583331;"
         offset="1"
         id="stop2959" />
    </linearGradient>
    <radialGradient
       inkscape:collect="always"
       xlink:href="#linearGradient2893"
       id="radialGradient3236"
       gradientUnits="userSpaceOnUse"
       gradientTransform="matrix(1.215027,1.531577e-24,1.464684e-23,1.266667,-839.1924,-490.4894)"
       cx="858.04236"
       cy="579.93323"
       fx="858.04236"
       fy="579.93323"
       r="300" />
  </defs>
  <sodipodi:namedview
     inkscape:window-height="682"
     inkscape:window-width="1024"
     inkscape:pageshadow="2"
     inkscape:pageopacity="0.0"
     guidetolerance="10.0"
     gridtolerance="10.0"
     objecttolerance="10.0"
     borderopacity="1.0"
     bordercolor="#666666"
     pagecolor="#ffffff"
     id="base"
     inkscape:zoom="0.34154592"
     inkscape:cx="515.41188"
     inkscape:cy="211.42347"
     inkscape:window-x="-4"
     inkscape:window-y="-4"
     inkscape:current-layer="layer2"
     showgrid="true" />
  <desc
     id="desc22">Coat of Arms of Canton of Freiburg (Fribourg)</desc>
  <g
     inkscape:groupmode="layer"
     id="layer1"
     inkscape:label="Fond écu"
     sodipodi:insensitive="true">
    <path
       id="path1899"
       d="M 1.5,1.49998 L 1.5,460.3679 C 1.5,626.6785 135.81456,761.5 301.49999,761.5 C 467.18543,761.5 601.5,626.6785 601.5,460.3679 L 601.5,1.49998 L 1.5,1.49998 z "
       style="fill:white;fill-opacity:1" />
  </g>
  <g
     inkscape:groupmode="layer"
     id="layer2"
     inkscape:label="Meubles"
     style="display:inline"
     sodipodi:insensitive="true">
    <g
       id="g13455">
      <path
         sodipodi:nodetypes="ccccccccc"
         id="path1895"
         d="M 393.07295,447.41372 C 403.46408,461.22873 413.52684,475.13754 430.61319,487.03964 C 408.81319,521.8298 386.30773,551.68165 361.57205,565.92214 L 416.94842,584.25782 L 418.05638,573.30853 L 433.4375,586.47375 C 440.06641,549.29501 447.66265,514.58566 486.72819,484.08507 C 477.19497,470.50531 461.47988,454.1751 465.06865,439.65803 L 393.07295,447.41372 z "
         style="fill:black;fill-opacity:1;fill-rule:evenodd;stroke:white;stroke-width:4.03645515px;stroke-linecap:butt;stroke-linejoin:miter;stroke-opacity:1" />
      <path
         sodipodi:nodetypes="cssscccccccc"
         id="path2783"
         d="M 146.18871,412.56289 C 146.18871,412.56289 126.14379,427.02328 105.77205,428.70871 C 88.910403,430.10374 68.629114,434.69727 75.722376,464.69354 C 80.287889,484.00035 75.361961,487.08501 73.901854,509.41177 C 72.610955,529.15125 50.263485,537.75366 66.910835,553.81278 L 111.68114,530.30664 L 107.98798,524.4757 L 128.93492,527.77348 L 110.57321,502.07749 L 110.20387,469.39048 C 128.68862,468.36009 146.2679,462.80258 163.78575,456.93786 L 146.18871,412.56289 z "
         style="fill:black;fill-opacity:1;fill-rule:evenodd;stroke:white;stroke-width:4.03645515px;stroke-linecap:butt;stroke-linejoin:miter;stroke-opacity:1" />
      <path
         sodipodi:nodetypes="csccccccccscsccccccccccccccccccccccccccccsccccccccc"
         id="path1931"
         d="M 218.72925,199.50741 C 243.41674,198.00504 257.99888,212.77366 275.61998,217.07822 C 303.53901,223.89837 373.98229,212.61955 423.16347,206.81957 C 470.75828,182.80234 495.52455,196.83261 523.03025,206.29725 C 581.24905,195.23409 585.89897,80.605875 425.61937,164.86344 C 255.36101,238.32914 375.6305,72.923412 248.2734,45.134679 C 285.44992,27.580863 307.37937,50.975389 325.96616,69.843475 C 324.16703,51.150693 316.48509,42.553568 307.11317,30.584753 C 327.52802,40.094641 348.77164,48.549722 354.31806,76.983117 L 356.74853,44.757796 C 410.74677,82.774542 363.72203,176.39677 420.02969,141.57209 C 575.98931,45.115466 636.62562,165.25627 544.7794,233.26937 C 599.67543,289.24761 549.32888,345.23429 545.82399,402.37475 C 544.45612,424.67556 557.91733,444.84924 583.0548,453.1852 C 550.46131,503.53401 545.3223,532.43708 546.34631,584.53754 C 525.81581,574.21968 505.28535,578.85099 484.75489,576.18079 C 512.57006,526.2695 517.56243,496.89864 517.80728,471.80061 C 497.10523,463.62763 475.81911,459.54286 456.39847,442.3998 C 403.98623,414.06469 434.73179,369.41282 408.72644,343.91712 C 434.4559,369.70788 403.99212,413.99881 456.02865,443.97115 C 448.23688,456.84441 435.24672,475.15099 413.23988,451.09606 C 377.21093,482.12013 359.3591,433.02953 396.71367,413.678 L 340.8675,436.47178 L 361.57205,404.46394 C 326.5971,426.90489 289.92413,448.62683 250.73705,462.92158 C 255.46971,439.77965 264.47952,416.63769 257.52689,393.49572 C 264.31823,416.63769 255.25195,439.77965 250.73705,462.92158 C 252.54978,476.56847 257.97365,497.90795 248.6479,512.16516 C 242.02053,538.20437 247.29198,563.72126 264.31673,589.76047 L 194.3686,585.58214 C 212.7503,562.43949 212.55747,538.05853 210.3725,513.54482 C 201.30077,507.4021 197.22948,488.72429 202.72532,476.31401 C 207.12663,453.78748 179.42746,437.18385 186.1991,409.16459 C 179.25228,436.9222 207.00828,453.8469 202.72532,476.31401 C 130.53683,464.15253 139.04887,384.26851 119.90703,346.86365 C 164.42045,365.64402 152.14244,417.54726 174.7086,444.82849 C 152.21223,417.60099 164.42707,365.30443 119.90703,346.86365 C 123.24598,305.68955 178.35469,337.43328 187.24369,269.26833 C 178.44382,337.34609 123.39731,305.64317 119.90703,346.86365 C 118.45786,373.91395 82.402951,381.66297 50.481212,366.71086 C 25.43513,358.21214 34.095869,323.84314 56.748737,316.945 C 67.203397,302.94758 68.861775,278.51944 63.538579,262.66574 C 54.475607,235.674 60.339769,236.08976 58.837925,222.82347 L 71.185764,192.71757 L 58.837925,222.82347 C 30.8596,224.44446 24.472758,193.67824 12.018599,172.01301 C 31.741001,175.48259 51.463362,172.42336 71.185764,192.71757 C 87.890269,183.57294 88.834356,147.36541 117.81788,167.49961 C 130.11966,177.01834 130.82297,158.30029 154.00405,175.1468 C 163.56008,170.41962 180.70512,175.03256 185.94565,183.52975 L 218.72925,199.50741 z "
         style="fill:black;fill-opacity:1;fill-rule:evenodd;stroke:white;stroke-width:4.03645515px;stroke-linecap:butt;stroke-linejoin:miter;stroke-opacity:1" />
      <path
         sodipodi:nodetypes="ccccc"
         id="path3670"
         d="M 40.476212,51.102497 C 136.72237,89.394207 49.609297,147.37542 92.892689,166.29517 C 85.790385,174.60938 79.771465,189.53825 71.431584,193.11782 C 65.315265,187.81569 57.66259,182.24192 49.806034,179.02809 C 20.047068,137.26059 65.289916,97.258634 40.476212,51.102497 z "
         style="fill:#fcef3c;fill-opacity:1;fill-rule:evenodd;stroke:black;stroke-width:4.03645515px;stroke-linecap:butt;stroke-linejoin:miter;stroke-opacity:1" />
      <path
         sodipodi:nodetypes="cscs"
         id="path4557"
         d="M 177.0552,186.83867 C 161.91131,194.81684 176.72889,222.7429 198.39751,215.46315 C 251.57244,197.59857 230.17741,135.17318 287.4386,103.18104 C 202.05361,84.693957 222.09501,163.11049 177.0552,186.83867 z "
         style="fill:#fcef3c;fill-opacity:1;fill-rule:evenodd;stroke:black;stroke-width:4.03645515px;stroke-linecap:butt;stroke-linejoin:miter;stroke-opacity:1" />
      <path
         sodipodi:nodetypes="ccc"
         id="path5444"
         d="M 175.92116,229.78841 C 201.99827,266.7032 232.50717,239.93981 254.15242,224.06472 C 239.53169,221.68995 226.85783,219.31518 209.61195,216.94041"
         style="fill:none;fill-rule:evenodd;stroke:white;stroke-width:4.03645515px;stroke-linecap:butt;stroke-linejoin:miter;stroke-opacity:1" />
      <path
         sodipodi:nodetypes="cccccc"
         id="path6331"
         d="M 120.86201,262.79264 L 131.49411,259.17764 C 137.24441,264.79315 142.03721,267.50214 151.67639,262.42335 C 148.7479,259.58629 145.81937,259.26858 142.89088,252.92525 L 163.07316,240.81588 C 178.09475,263.4721 135.49299,296.50064 120.86201,262.79264 z "
         style="fill:white;fill-opacity:1;fill-rule:evenodd;stroke:none;stroke-width:4.03645515px;stroke-linecap:butt;stroke-linejoin:miter;stroke-opacity:1" />
      <path
         sodipodi:nodetypes="cc"
         id="path7218"
         d="M 103.23893,334.76231 C 93.332864,332.39053 74.558747,350.30432 94.084129,362.64816"
         style="fill:none;fill-rule:evenodd;stroke:white;stroke-width:4.03645515px;stroke-linecap:butt;stroke-linejoin:miter;stroke-opacity:1" />
      <path
         sodipodi:nodetypes="cc"
         id="path8105"
         d="M 45.646669,347.95357 C 49.624676,341.83301 52.170832,335.71241 52.216242,329.59186"
         style="fill:none;fill-rule:evenodd;stroke:white;stroke-width:4.03645515px;stroke-linecap:butt;stroke-linejoin:miter;stroke-opacity:1" />
      <path
         sodipodi:nodetypes="cccccccc"
         id="path8992"
         d="M 104.3469,529.56801 L 142.12622,550.88429 C 139.9027,566.71316 132.2826,583.74127 121.20531,601.53764 L 96.305346,556.81407 L 114.16752,588.83527 L 96.154441,605.96413 C 91.852254,579.10214 81.974767,563.39075 72.305006,547.2639 L 104.3469,529.56801 z "
         style="fill:#fcef3c;fill-opacity:1;fill-rule:evenodd;stroke:black;stroke-width:4.03645515px;stroke-linecap:butt;stroke-linejoin:miter;stroke-opacity:1" />
      <path
         sodipodi:nodetypes="cccccccc"
         id="path9881"
         d="M 200.11385,586.10442 C 187.67487,601.84788 171.08286,615.51487 152.75828,628.31556 C 163.28628,629.91376 173.67434,630.9523 183.2294,628.65882 L 203.0163,606.31273 L 174.78715,638.52622 C 196.02004,643.36306 216.05974,639.8478 236.3638,638.18296 C 242.44819,620.94657 243.30864,603.71014 241.53426,586.47375 L 200.11385,586.10442 z "
         style="fill:#fcef3c;fill-opacity:1;fill-rule:evenodd;stroke:black;stroke-width:4.03645515px;stroke-linecap:butt;stroke-linejoin:miter;stroke-opacity:1" />
      <path
         sodipodi:nodetypes="cccccscc"
         id="path10768"
         d="M 373.68141,565.92214 C 360.81255,579.08914 344.81338,590.91458 318.25294,598.21378 C 329.39484,603.29293 343.49127,604.17934 354.63314,604.46613 L 376.26664,587.21238 C 362.08044,597.70474 351.01624,610.53857 333.31686,618.39606 C 360.96699,623.76624 393.23497,619.65938 398.60568,613.33846 C 408.73024,601.4226 413.48026,593.9177 413.67663,579.13947 L 373.68141,565.92214 z "
         style="fill:#fcef3c;fill-opacity:1;fill-rule:evenodd;stroke:black;stroke-width:4.03645515px;stroke-linecap:butt;stroke-linejoin:miter;stroke-opacity:1" />
      <path
         sodipodi:nodetypes="cccccscc"
         id="path11655"
         d="M 490.73861,573.99505 C 477.9956,591.84655 462.27179,607.90955 439.71592,619.87332 C 450.53786,621.04998 460.43238,622.92221 474.98816,621.29851 L 486.70215,610.32315 L 465.78125,633.06461 C 491.36523,635.44221 512.47589,632.19246 518.18134,623.07059 C 527.13948,608.74828 526.55149,591.49462 527.04067,574.36439 L 490.73861,573.99505 z "
         style="fill:#fcef3c;fill-opacity:1;fill-rule:evenodd;stroke:black;stroke-width:4.03645515px;stroke-linecap:butt;stroke-linejoin:miter;stroke-opacity:1" />
    </g>
  </g>
  <g
     inkscape:groupmode="layer"
     id="layer3"
     inkscape:label="Reflet final"
     style="display:inline"
     sodipodi:insensitive="true">
    <path
       style="fill:url(#radialGradient3236);fill-opacity:1"
       d="M 1.5,1.5 L 1.5,460.3679 C 1.5,626.67854 135.81454,761.5 301.49993,761.5 C 467.1854,761.5 601.5,626.67854 601.5,460.3679 L 601.5,1.5 L 1.5,1.5 z "
       id="path2346" />
  </g>
  <g
     inkscape:groupmode="layer"
     id="layer4"
     inkscape:label="Contour final"
     style="display:inline"
     sodipodi:insensitive="true">
    <path
       style="fill:none;fill-opacity:1;stroke:#000000;stroke-width:3;stroke-miterlimit:4;stroke-dasharray:none;stroke-opacity:1"
       d="M 1.5,1.5 L 1.5,460.36794 C 1.5,626.67854 135.81454,761.5 301.49993,761.5 C 467.1854,761.5 601.5,626.67854 601.5,460.36794 L 601.5,1.5 L 1.5,1.5 z "
       id="path3239" />
  </g>
</svg>

<?xml version="1.0" encoding="UTF-8"?>
<svg version="1.0" viewBox="0 0 603 763" xmlns="http://www.w3.org/2000/svg" xmlns:cc="http://web.resource.org/cc/" xmlns:dc="http://purl.org/dc/elements/1.1/" xmlns:rdf="http://www.w3.org/1999/02/22-rdf-syntax-ns#" xmlns:xlink="http://www.w3.org/1999/xlink">
<metadata>
<rdf:RDF>
<cc:Work rdf:about="">
<dc:format>image/svg+xml</dc:format>
<dc:type rdf:resource="http://purl.org/dc/dcmitype/StillImage"/>
<dc:date>07-AUG-2006</dc:date>
<dc:creator>
<cc:Agent>
<dc:title>Jérôme BLUM (wagner51)</dc:title>
</cc:Agent>
</dc:creator>
<cc:license rdf:resource="http://creativecommons.org/licenses/GPL/2.0/"/>
<dc:coverage/>
<dc:description>Gabarit pour le Projet:Blasons de WIkipédia</dc:description>
<dc:subject>
<rdf:Bag>
<rdf:li>blason suisse modèle gabarit projet blasons</rdf:li>
</rdf:Bag>
</dc:subject>
<dc:language>fr</dc:language>
<dc:title>Gabrit d'un blason suisse</dc:title>
</cc:Work>
<cc:License rdf:about="http://creativecommons.org/licenses/GPL/2.0/">
<cc:permits rdf:resource="http://web.resource.org/cc/Reproduction"/>
<cc:permits rdf:resource="http://web.resource.org/cc/Distribution"/>
<cc:requires rdf:resource="http://web.resource.org/cc/Notice"/>
<cc:permits rdf:resource="http://web.resource.org/cc/DerivativeWorks"/>
<cc:requires rdf:resource="http://web.resource.org/cc/ShareAlike"/>
<cc:requires rdf:resource="http://web.resource.org/cc/SourceCode"/>
</cc:License>
</rdf:RDF>
</metadata>
<defs>
<radialGradient id="a" cx="858.04" cy="579.93" r="300" gradientTransform="matrix(1.215 1.5316e-24 1.4647e-23 1.2667 -839.19 -490.49)" gradientUnits="userSpaceOnUse">
<stop stop-color="#fff" stop-opacity=".31373" offset="0"/>
<stop stop-color="#fff" stop-opacity=".25098" offset=".19"/>
<stop stop-color="#6b6b6b" stop-opacity=".12549" offset=".6"/>
<stop stop-opacity=".12549" offset="1"/>
</radialGradient>
</defs>
<desc>Coat of Arms of Canton of Freiburg (Fribourg)</desc>
<path d="m1.5 1.5v458.87c0 166.31 134.31 301.13 300 301.13 165.69 0 300-134.82 300-301.13v-458.87h-600z" fill="#fff"/>
<g>
<path d="m393.07 447.41c10.391 13.815 20.454 27.724 37.54 39.626-21.8 34.79-44.305 64.642-69.041 78.882l55.376 18.336 1.108-10.949 15.381 13.165c6.6289-37.179 14.225-71.888 53.291-102.39-9.5332-13.58-25.248-29.91-21.66-44.427l-71.996 7.7557z" fill-rule="evenodd" stroke="#fff" stroke-width="4.0365px"/>
<path d="m146.19 412.56s-20.045 14.46-40.417 16.146c-16.862 1.395-37.143 5.9886-30.05 35.985 4.5655 19.307-0.36042 22.391-1.8205 44.718-1.2909 19.739-23.638 28.342-6.991 44.401l44.77-23.506-3.6932-5.8309 20.947 3.2978-18.362-25.696-0.36934-32.687c18.485-1.0304 36.064-6.5879 53.582-12.453l-17.597-44.375z" fill-rule="evenodd" stroke="#fff" stroke-width="4.0365px"/>
<path d="m218.73 199.51c24.687-1.5024 39.27 13.266 56.891 17.571 27.919 6.8202 98.362-4.4587 147.54-10.259 47.595-24.017 72.361-9.987 99.867-0.52232 58.219-11.063 62.869-125.69-97.411-41.434-170.26 73.466-49.989-91.94-177.35-119.73 37.177-17.554 59.106 5.8407 77.693 24.709-1.7991-18.693-9.4811-27.29-18.853-39.259 20.415 9.5099 41.658 17.965 47.205 46.398l2.4305-32.225c53.998 38.017 6.9735 131.64 63.281 96.814 155.96-96.457 216.6 23.684 124.75 91.697 54.896 55.978 4.5495 111.96 1.0446 169.11-1.3679 22.301 12.093 42.474 37.231 50.81-32.593 50.349-37.732 79.252-36.708 131.35-20.53-10.318-41.061-5.6866-61.591-8.3568 27.815-49.911 32.808-79.282 33.052-104.38-20.702-8.173-41.988-12.258-61.409-29.401-52.412-28.335-21.667-72.987-47.672-98.483 25.729 25.791-4.7343 70.082 47.302 100.05-7.7918 12.873-20.782 31.18-42.789 7.1249-36.029 31.024-53.881-18.067-16.526-37.418l-55.846 22.794 20.705-32.008c-34.975 22.441-71.648 44.163-110.84 58.458 4.7327-23.142 13.742-46.284 6.7898-69.426 6.7913 23.142-2.2749 46.284-6.7898 69.426 1.8127 13.647 7.2366 34.986-2.0892 49.244-6.6274 26.039-1.3559 51.556 15.669 77.595l-69.948-4.1783c18.382-23.143 18.189-47.524 16.004-72.037-9.0717-6.1427-13.143-24.821-7.6472-37.231 4.4013-22.527-23.298-39.13-16.526-67.149-6.9468 27.758 20.809 44.682 16.526 67.149-72.188-12.161-63.676-92.046-82.818-129.45 44.513 18.78 32.235 70.684 54.802 97.965-22.496-27.228-10.282-79.524-54.802-97.965 3.339-41.174 58.448-9.4304 67.337-77.595-8.7999 68.078-63.846 36.375-67.337 77.595-1.4492 27.05-37.504 34.799-69.426 19.847-25.046-8.4987-16.385-42.868 6.2675-49.766 10.455-13.997 12.113-38.426 6.7898-54.279-9.063-26.992-3.1988-26.576-4.7007-39.842l12.348-30.106-12.348 30.106c-27.978 1.621-34.365-29.145-46.819-50.81 19.722 3.4696 39.445 0.41035 59.167 20.705 16.705-9.1446 17.649-45.352 46.632-25.218 12.302 9.5187 13.005-9.1993 36.186 7.6472 9.556-4.7272 26.701-0.11424 31.942 8.383l32.784 15.978z" fill-rule="evenodd" stroke="#fff" stroke-width="4.0365px"/>
<path d="m40.476 51.102c96.246 38.292 9.1331 96.273 52.416 115.19-7.1023 8.3142-13.121 23.243-21.461 26.823-6.1163-5.3021-13.769-10.876-21.626-14.09-29.759-41.768 15.484-81.769-9.3298-127.93z" fill="#fcef3c" fill-rule="evenodd" stroke="#000" stroke-width="4.0365px"/>
<path d="m177.06 186.84c-15.144 7.9782-0.32631 35.904 21.342 28.624 53.175-17.865 31.78-80.29 89.041-112.28-85.385-18.487-65.344 59.929-110.38 83.658z" fill="#fcef3c" fill-rule="evenodd" stroke="#000" stroke-width="4.0365px"/>
<path d="m175.92 229.79c26.077 36.915 56.586 10.151 78.231-5.7237-14.621-2.3748-27.295-4.7495-44.54-7.1243" fill="none" stroke="#fff" stroke-width="4.0365px"/>
<path d="m120.86 262.79 10.632-3.615c5.7503 5.6155 10.543 8.3245 20.182 3.2457-2.9285-2.8371-5.857-3.1548-8.7855-9.4981l20.182-12.109c15.022 22.656-27.58 55.685-42.211 21.977z" fill="#fff" fill-rule="evenodd"/>
<path d="m103.24 334.76c-9.9061-2.3718-28.68 15.542-9.1548 27.886" fill="none" stroke="#fff" stroke-width="4.0365px"/>
<path d="m45.647 347.95c3.978-6.1206 6.5242-12.241 6.5696-18.362" fill="none" stroke="#fff" stroke-width="4.0365px"/>
<path d="m104.35 529.57 37.779 21.316c-2.2235 15.829-9.8436 32.857-20.921 50.653l-24.9-44.724 17.862 32.021-18.013 17.129c-4.3022-26.862-14.18-42.573-23.849-58.7l32.042-17.696z" fill="#fcef3c" fill-rule="evenodd" stroke="#000" stroke-width="4.0365px"/>
<path d="m200.11 586.1c-12.439 15.743-29.031 29.41-47.356 42.211 10.528 1.5982 20.916 2.6367 30.471 0.34326l19.787-22.346-28.229 32.213c21.233 4.8368 41.273 1.3216 61.577-0.34326 6.0844-17.236 6.9448-34.473 5.1705-51.709l-41.42-0.36933z" fill="#fcef3c" fill-rule="evenodd" stroke="#000" stroke-width="4.0365px"/>
<path d="m373.68 565.92c-12.869 13.167-28.868 24.992-55.428 32.292 11.142 5.0792 25.238 5.9656 36.38 6.2524l21.634-17.254c-14.186 10.492-25.25 23.326-42.95 31.184 27.65 5.3702 59.918 1.2633 65.289-5.0576 10.125-11.916 14.875-19.421 15.071-34.199l-39.995-13.217z" fill="#fcef3c" fill-rule="evenodd" stroke="#000" stroke-width="4.0365px"/>
<path d="m490.74 574c-12.743 17.852-28.467 33.914-51.023 45.878 10.822 1.1767 20.716 3.0489 35.272 1.4252l11.714-10.975-20.921 22.741c25.584 2.3776 46.695-0.87215 52.4-9.994 8.9581-14.322 8.3702-31.576 8.8593-48.706l-36.302-0.36934z" fill="#fcef3c" fill-rule="evenodd" stroke="#000" stroke-width="4.0365px"/>
<path d="m1.5 1.5v458.87c0 166.31 134.31 301.13 300 301.13 165.69 0 300-134.82 300-301.13v-458.87h-600z" fill="url(#a)"/>
<path d="m1.5 1.5v458.87c0 166.31 134.31 301.13 300 301.13 165.69 0 300-134.82 300-301.13v-458.87h-600z" fill="none" stroke="#000" stroke-width="3"/>
</g>
</svg>
